assets/emojis/FacewithMedicalMask.svg

<svg width="125" height="126" viewBox="0 0 125 126" fill="none" xmlns="http://www.w3.org/2000/svg">
<circle cx="62.3496" cy="62.6318" r="62.3496" fill="#F9B42F"/>
<path opacity="0.3" fill-rule="evenodd" clip-rule="evenodd" d="M113.285 98.8031C101.964 110.394 86.1615 117.59 68.6786 117.59C34.2439 117.59 6.32903 89.6751 6.32903 55.2404C6.32903 41.8447 10.5535 29.4357 17.7429 19.2729C6.76513 30.5121 0 45.8839 0 62.8357C0 97.2704 27.9149 125.185 62.3496 125.185C83.3887 125.185 101.994 114.765 113.285 98.8031Z" fill="#BC8417"/>
<path d="M36.612 61.5052C34.8458 61.5073 33.0967 61.1596 31.4656 60.4822C29.8345 59.8048 28.3536 58.8112 27.1085 57.5587C26.7274 57.0457 26.5443 56.4124 26.5926 55.7752C26.6409 55.138 26.9174 54.5396 27.3714 54.0899C27.8255 53.6402 28.4265 53.3693 29.0641 53.3271C29.7018 53.2848 30.3333 53.474 30.8426 53.8599C31.6002 54.6177 32.4997 55.2187 33.4896 55.6288C34.4795 56.0389 35.5405 56.2499 36.612 56.2499C37.6835 56.2499 38.7445 56.0389 39.7344 55.6288C40.7243 55.2187 41.6238 54.6177 42.3814 53.8599C42.8846 53.391 43.5502 53.1357 44.2379 53.1479C44.9257 53.16 45.5818 53.4386 46.0682 53.925C46.5546 54.4114 46.8332 55.0675 46.8453 55.7553C46.8574 56.443 46.6022 57.1086 46.1332 57.6118C44.8827 58.8585 43.3973 59.8445 41.7629 60.5129C40.1285 61.1812 38.3777 61.5185 36.612 61.5052Z" fill="#2C2A46"/>
<path d="M87.1221 61.505C85.3529 61.5094 83.6005 61.1628 81.9662 60.4854C80.3319 59.808 78.8481 58.8131 77.6008 57.5585C77.3056 57.3252 77.0632 57.0318 76.89 56.6978C76.7167 56.3637 76.6164 55.9967 76.5958 55.6209C76.5752 55.2452 76.6347 54.8693 76.7703 54.5183C76.906 54.1673 77.1148 53.8492 77.3827 53.585C77.6507 53.3208 77.9718 53.1166 78.3247 52.986C78.6776 52.8553 79.0543 52.8012 79.4297 52.8271C79.8051 52.8531 80.1707 52.9586 80.5022 53.1366C80.8338 53.3146 81.1237 53.5611 81.3527 53.8597C82.1103 54.6174 83.0098 55.2185 83.9997 55.6286C84.9896 56.0386 86.0506 56.2497 87.1221 56.2497C88.1936 56.2497 89.2546 56.0386 90.2445 55.6286C91.2344 55.2185 92.1339 54.6174 92.8915 53.8597C93.4027 53.4998 94.0246 53.3319 94.6476 53.3856C95.2705 53.4394 95.8545 53.7112 96.2966 54.1534C96.7387 54.5955 97.0106 55.1794 97.0643 55.8024C97.118 56.4253 96.9501 57.0472 96.5902 57.5585C95.3492 58.8068 93.8741 59.7979 92.2494 60.4752C90.6247 61.1524 88.8823 61.5024 87.1221 61.505Z" fill="#2C2A46"/>
<mask id="mask0" mask-type="alpha" maskUnits="userSpaceOnUse" x="0" y="0" width="125" height="125">
<circle cx="62.3496" cy="62.6318" r="62.3496" fill="#F9B42F"/>
</mask>
<g mask="url(#mask0)">
<path d="M89.2454 68.2485H36.3252C32.9479 68.2485 30.21 70.9864 30.21 74.3638V101.061C30.21 104.438 32.9479 107.176 36.3252 107.176H89.2454C92.6227 107.176 95.3606 104.438 95.3606 101.061V74.3638C95.3606 70.9864 92.6227 68.2485 89.2454 68.2485Z" fill="white"/>
<path d="M93.7176 85.6912L127.433 68.8261V68.4411C127.427 66.2893 127.308 64.1393 127.078 62L68.0127 91.5251L123.509 92.458C124.27 90.4144 124.927 88.3339 125.479 86.2243L93.7176 85.6912Z" fill="white"/>
<path d="M-1.50694 62C-1.73765 64.1393 -1.85627 66.2893 -1.8623 68.4411L-1.8623 68.8261L31.8532 85.6912L0.0477946 86.2243C0.600548 88.3386 1.27288 90.4198 2.06154 92.458L57.5581 91.5251L-1.50694 62Z" fill="white"/>
</g>
</svg>

<svg xmlns="http://www.w3.org/2000/svg" width="125" height="126" fill="none" viewBox="0 0 125 126"><circle cx="62.35" cy="62.632" r="62.35" fill="#f9b42f"/><path fill="#bc8417" fill-rule="evenodd" d="M113.285 98.803c-11.321 11.591-27.123 18.787-44.606 18.787-34.435 0-62.35-27.915-62.35-62.35 0-13.395 4.225-25.804 11.414-35.967C6.765 30.513 0 45.883 0 62.836c0 34.434 27.915 62.349 62.35 62.349 21.039 0 39.644-10.42 50.935-26.382" clip-rule="evenodd" opacity=".3"/><path fill="#2c2a46" d="M36.612 61.505a13.38 13.38 0 0 1-9.504-3.946 2.654 2.654 0 0 1 3.735-3.7 8.16 8.16 0 0 0 11.538 0 2.654 2.654 0 0 1 3.752 3.753 13.34 13.34 0 0 1-9.521 3.893m50.51 0a13.38 13.38 0 0 1-9.521-3.947 2.655 2.655 0 1 1 3.752-3.698 8.16 8.16 0 0 0 11.539 0 2.654 2.654 0 0 1 3.698 3.699 13.38 13.38 0 0 1-9.468 3.946"/><mask id="a" width="125" height="125" x="0" y="0" mask-type="alpha" maskUnits="userSpaceOnUse"><circle cx="62.35" cy="62.632" r="62.35" fill="#f9b42f"/></mask><g fill="#fff" mask="url(#a)"><path d="M89.245 68.249h-52.92a6.115 6.115 0 0 0-6.115 6.115v26.697a6.115 6.115 0 0 0 6.115 6.115h52.92a6.115 6.115 0 0 0 6.116-6.115V74.364a6.115 6.115 0 0 0-6.116-6.115"/><path d="m93.718 85.691 33.715-16.865v-.385a62 62 0 0 0-.355-6.441L68.013 91.525l55.496.933a65 65 0 0 0 1.97-6.234zM-1.507 62c-.23 2.14-.35 4.29-.355 6.441v.385l33.715 16.865-31.805.533a58 58 0 0 0 2.014 6.234l55.496-.933z"/></g></svg>
